lib/logo_tmp/nrk-logo-nrk-p2.svg

<svg width="57" height="24" viewBox="0 0 57 24" fill="none" xmlns="http://www.w3.org/2000/svg">
<path d="M6.10352e-05 18.0017V6.00277H3.93725V18.0017H6.10352e-05ZM9.29387 7.91246L11.5581 18.0017H7.24923L4.54555 6.00277H6.96224C7.51641 5.99558 8.05412 6.19093 8.47456 6.55207C8.89568 6.89806 9.18501 7.37838 9.29387 7.91246ZM12.1496 18.0017V6.00277H16.0868V18.0017H12.1496ZM19.0605 10.5658C18.6363 10.5699 18.2188 10.4589 17.8526 10.2446C17.4913 10.0358 17.1912 9.73564 16.9823 9.37428C16.7678 9.00801 16.6568 8.59044 16.661 8.166C16.6562 7.74414 16.7673 7.32906 16.9823 6.96611C17.1934 6.60867 17.4932 6.31178 17.8526 6.1042C18.2189 5.89018 18.6363 5.7792 19.0605 5.78307C19.4823 5.77852 19.8972 5.88961 20.2603 6.1042C20.6161 6.3136 20.9127 6.61024 21.1221 6.96611C21.3369 7.32916 21.448 7.74418 21.4434 8.166C21.4473 8.59041 21.3363 9.00791 21.1221 9.37428C20.9149 9.73406 20.618 10.034 20.2603 10.2446C19.8972 10.4597 19.4819 10.5708 19.06 10.5658H19.0605ZM22.0517 18.0017V6.00277H25.9892V18.0017H22.0517ZM30.9738 12.5599C30.9849 12.5716 31.0693 12.7096 31.2272 12.974C31.3851 13.2383 31.5907 13.5764 31.844 13.988C32.0975 14.3994 32.3649 14.8359 32.6464 15.2977C32.9278 15.7594 33.1927 16.196 33.4409 16.6075C33.6882 17.0189 33.9698 17.4836 34.2858 18.0017H29.9599C29.6893 17.5623 29.4442 17.1651 29.2245 16.8102C29.0049 16.4554 28.7714 16.0723 28.5239 15.661C28.2759 15.2502 28.0307 14.8502 27.7883 14.4611C27.5459 14.0721 27.3376 13.7313 27.1633 13.4387C26.9883 13.146 26.8671 12.9488 26.7997 12.8472C26.6326 12.5951 26.5337 12.304 26.5127 12.0022C26.5295 11.7126 26.6227 11.4327 26.7828 11.1908C26.8504 11.0781 26.9743 10.8781 27.1546 10.5908C27.3348 10.3035 27.5461 9.96274 27.7883 9.56841C28.0305 9.17408 28.2757 8.77129 28.5239 8.36006C28.7721 7.94883 29.0056 7.56292 29.2245 7.20239C29.4446 6.84223 29.6897 6.44227 29.9599 6.0025H34.2858L30.9397 11.4612C30.8361 11.6232 30.7778 11.81 30.7707 12.0022C30.7818 12.204 30.8523 12.398 30.9732 12.5599H30.9738Z" fill="white"/>
<path d="M47.1601 7.5564C46.9522 7.23567 46.685 6.95738 46.3729 6.7364C46.0251 6.49338 45.6389 6.31053 45.2304 6.19555C44.7343 6.05887 44.2212 5.99353 43.7066 6.00147H39V18.0014H40.7777V13.6916H43.8423C44.5339 13.702 45.2163 13.5331 45.8229 13.2014C46.4043 12.8799 46.8871 12.4066 47.2196 11.8321C47.5762 11.1983 47.7546 10.48 47.736 9.75328C47.7375 9.36057 47.6921 8.96908 47.6009 8.58708C47.5128 8.22131 47.3638 7.87292 47.1601 7.5564ZM45.5856 11.1986C45.3583 11.5551 45.0234 11.8303 44.6293 11.9845C44.151 12.1652 43.642 12.2514 43.1307 12.2381H40.7774V7.47188H43.368C43.8628 7.45325 44.3552 7.54858 44.8071 7.75047C45.1665 7.92388 45.4603 8.20839 45.6449 8.56174C45.8406 8.95807 45.9366 9.39608 45.9245 9.8378C45.944 10.3144 45.8264 10.7866 45.5856 11.1986Z" fill="white"/>
<path d="M51.1844 16.5476C51.4525 16.3183 51.7279 16.0795 52.0191 15.8209C52.4254 15.4605 52.8346 15.069 53.2466 14.6462C53.6586 14.2235 54.0508 13.7842 54.4232 13.3282C54.7851 12.8869 55.1161 12.4211 55.4137 11.9342C55.6917 11.4816 55.9188 10.9998 56.0908 10.4975C56.2506 10.0352 56.3336 9.54994 56.3364 9.0609C56.3444 8.60428 56.252 8.15147 56.0655 7.73443C55.8807 7.34053 55.6086 6.99376 55.2697 6.72036C54.882 6.41358 54.4355 6.18916 53.9577 6.06091C53.3704 5.90066 52.7633 5.82386 52.1545 5.83276C51.7601 5.83173 51.3664 5.86566 50.9779 5.93416C50.6084 5.99949 50.2457 6.0986 49.8943 6.23022C49.5593 6.35541 49.2339 6.50501 48.9209 6.67783L49.141 8.14823C49.4091 7.96879 49.6957 7.81864 49.996 7.70036C50.3221 7.5695 50.6592 7.46768 51.0033 7.39611C51.3541 7.32287 51.7115 7.28617 52.0699 7.28656C52.4452 7.2789 52.8195 7.33012 53.1789 7.43837C53.4652 7.5259 53.7283 7.67604 53.9492 7.87782C54.1481 8.06306 54.3015 8.29148 54.3978 8.54542C54.4963 8.81326 54.545 9.09675 54.5417 9.38203C54.536 9.86092 54.4384 10.3343 54.254 10.7764C54.0397 11.2956 53.767 11.789 53.4413 12.2468C53.062 12.7849 52.6493 13.2985 52.2054 13.7848C51.7313 14.3088 51.215 14.8327 50.6563 15.3566C50.0976 15.8806 49.5191 16.413 48.9209 16.9538L49.141 18.0017H56.4718L56.675 16.5479L51.1844 16.5476Z" fill="white"/>
</svg>

<svg xmlns="http://www.w3.org/2000/svg" viewBox="0 0 57 24"><path fill="#fff" d="M0 18.002v-12h3.937v12H0Zm9.294-10.09 2.264 10.09H7.25l-2.703-12h2.416a2.276 2.276 0 0 1 1.513.55c.42.346.71.826.819 1.36Zm2.856 10.09v-12h3.937v12H12.15Zm6.91-7.436a2.382 2.382 0 0 1-2.4-2.4 2.303 2.303 0 0 1 .322-1.2 2.412 2.412 0 0 1 3.278-.862c.356.21.653.506.862.862.215.363.326.778.321 1.2a2.4 2.4 0 0 1-1.183 2.079 2.302 2.302 0 0 1-1.2.32Zm2.992 7.436v-12h3.937v12h-3.937Zm8.922-5.442c.01.012.095.15.253.414s.364.602.617 1.014a320.187 320.187 0 0 1 1.597 2.62c.247.41.529.876.845 1.394H29.96c-.27-.44-.516-.837-.736-1.192-.22-.355-.453-.738-.7-1.149-.248-.41-.493-.81-.736-1.2-.242-.389-.45-.73-.625-1.022a18.04 18.04 0 0 0-.363-.592 1.75 1.75 0 0 1-.287-.845c.016-.29.11-.57.27-.811.067-.113.191-.313.372-.6a182.106 182.106 0 0 0 1.37-2.23c.247-.412.48-.798.7-1.159l.735-1.2h4.326l-3.346 5.46a1.078 1.078 0 0 0-.17.54c.012.202.082.396.203.558ZM47.16 7.556a3.013 3.013 0 0 0-.787-.82 3.785 3.785 0 0 0-1.143-.54A5.422 5.422 0 0 0 43.707 6H39v12h1.778v-4.31h3.064a4.003 4.003 0 0 0 1.98-.49 3.66 3.66 0 0 0 1.398-1.369 4.03 4.03 0 0 0 .516-2.079 4.94 4.94 0 0 0-.135-1.166 3.357 3.357 0 0 0-.44-1.03ZM45.586 11.2a1.997 1.997 0 0 1-.957.786 3.95 3.95 0 0 1-1.498.253h-2.354V7.472h2.591a3.23 3.23 0 0 1 1.44.278c.358.174.652.458.837.812.196.396.292.834.28 1.276.019.476-.099.949-.34 1.36ZM51.184 16.548c.269-.23.544-.468.835-.727.406-.36.816-.752 1.228-1.175.412-.423.804-.862 1.176-1.318.362-.441.693-.907.99-1.394.279-.452.506-.934.678-1.436.16-.463.243-.948.245-1.437a3.115 3.115 0 0 0-.27-1.327 2.868 2.868 0 0 0-.796-1.014 3.632 3.632 0 0 0-1.312-.66 6.49 6.49 0 0 0-1.803-.227 6.675 6.675 0 0 0-1.177.101c-.37.065-.732.165-1.084.296-.335.125-.66.275-.973.448l.22 1.47c.268-.18.555-.33.855-.448.326-.13.663-.232 1.007-.304a5.19 5.19 0 0 1 1.067-.11c.375-.007.75.044 1.109.152.286.088.55.238.77.44.2.185.352.413.449.667.098.268.147.552.144.837a3.738 3.738 0 0 1-.288 1.394 7.42 7.42 0 0 1-.813 1.47c-.379.539-.792 1.053-1.236 1.539-.474.524-.99 1.048-1.549 1.572-.558.524-1.137 1.056-1.735 1.597l.22 1.048h7.33l.204-1.454h-5.49Z"/></svg>
